images/windows/weather/icon-description.svg

<svg width="12" height="12" viewBox="0 0 12 12" xmlns="http://www.w3.org/2000/svg" class="inline-DS-EntryPoint1-1"><path d="M6.00001 0.166061C9.22217 0.166061 11.8342 2.77814 11.8342 6.0003C11.8342 9.22246 9.22217 11.8345 6.00001 11.8345C2.77785 11.8345 0.165771 9.22246 0.165771 6.0003C0.165771 2.77814 2.77785 0.166061 6.00001 0.166061ZM6.00001 1.04106C3.2611 1.04106 1.04077 3.26139 1.04077 6.0003C1.04077 8.73921 3.2611 10.9595 6.00001 10.9595C8.73892 10.9595 10.9592 8.73921 10.9592 6.0003C10.9592 3.26139 8.73892 1.04106 6.00001 1.04106ZM5.99788 5.12473C6.21937 5.12459 6.40253 5.28906 6.43164 5.50258L6.43567 5.56195L6.43777 8.77121C6.43793 9.01284 6.24218 9.20884 6.00056 9.209C5.77907 9.20914 5.59591 9.04467 5.5668 8.83115L5.56277 8.77178L5.56067 5.56252C5.56051 5.3209 5.75626 5.12489 5.99788 5.12473ZM6.00027 3.08437C6.32201 3.08437 6.58282 3.34519 6.58282 3.66693C6.58282 3.98866 6.32201 4.24948 6.00027 4.24948C5.67854 4.24948 5.41772 3.98866 5.41772 3.66693C5.41772 3.34519 5.67854 3.08437 6.00027 3.08437Z" fill="white" fill-opacity="0.55"></path></svg>

<svg xmlns="http://www.w3.org/2000/svg" width="12" height="12" class="inline-DS-EntryPoint1-1"><path fill="#fff" fill-opacity=".55" d="M6 .166a5.834 5.834 0 1 1 0 11.668A5.834 5.834 0 0 1 6 .166Zm0 .875a4.96 4.96 0 1 0 0 9.919A4.96 4.96 0 0 0 6 1.04Zm-.002 4.084c.221 0 .405.164.434.378l.004.059.002 3.21a.437.437 0 0 1-.871.06l-.004-.06-.002-3.21c0-.241.195-.437.437-.437ZM6 3.085a.583.583 0 1 1 0 1.164.583.583 0 0 1 0-1.165Z"/></svg>
